X:1
T:Domine Probasti, LM
T:Alfred Pettett, 1826
T:Domine Probasti, LM
T:Public Domain
C:Alfred Pettett, 1826
Z:Public Domain
%%score ( 1 2 ) ( 3 4 )
L:1/8
M:none
K:G
V:1 treble 
V:2 treble 
V:3 bass 
V:4 bass 
V:1
 [DB]2 | (G3 B) (dc) | ([DB]2 [FA]2) G2 | (Aced) (cB) | (B2 A2) [DB]2 | (E2 [CF]2) [DG]2 | %6
 (^C2 A,2) [EG]2 | [DF]2 D2 ^C2 x2 | D4 [DF]2 | (FE[^DB][FA]) ([EG][DF]) | [EG]4 [FB]2 | %11
 (E3 C) ([B,d][A,c]) | (B2 A2) [B,G]2 | (FAce) (dc) | [G,B]4 [EA]2 | [DG]4 [CF]2 | [B,G]4 |] %17
V:2
 x2 | D4 A,2 | x4 G2 | E4 E2 | D4 x2 | E2 x4 | A4 x2 | x2 E4 x2 | D4 x2 | A2 x4 | x6 | e4 x2 | %12
 D4 x2 | C4 A,2 | x6 | x6 | x4 |] %17
V:3
 G,2 | [G,B,]4 [F,A,]2 | (B,2 C2) [B,,D]2 | (E2 CB,) (A,G,) | (G,2 F,2) [G,,G,]2 | %5
 (C,B,, [A,,A,]2) [G,,B,]2 | ([G,E]2 [F,D]2) [G,B,]2 | A,2 z2 G,2 x2 | [D,F,]4 [D,A,]2 | %9
 (C,2 B,,2) [B,,B,]2 | [E,B,]4 [D,B,]2 | (B,^G, A,2) [C,E,]2 | (G,2 F,2) [D,G,]2 | [D,A,]4 [F,D]2 | %14
 (G,B,D=F) (EC) | [D,B,]4 [D,A,]2 | [G,,G,]4 |] %17
V:4
 G,2 | x6 | G,4 x2 | C,4 C,2 | D,4 x2 | G,2 x4 | x6 | A,4 A,,4 | x6 | F,4 x2 | x6 | C,4 x2 | %12
 D,4 x2 | x6 | G,4 C,2 | x6 | x4 |] %17

